X:84
T:Jackson Stomp
C:Arr. Bob Clayton
N:Mandolin Notebook
L:1/8
Q:1/4=225
M:4/4
K:G
z4 zD EF |: "G"G2 G2 G2 G2 | =FE D3D E^F | G2 G2 G2 G2 | =FE D4 D2 | G2 G2 F2 G2 | 
"D"A4 D3D | "G"G2 G2 A2 B2 | "G7"d2 B2 A2 G2 | "C"C2 C2 E2 G2 | ^A=A G2 _BA G2 | 
C2 C2 E2 G2 | ^A=A G2 _BA G2 | "G"D2 [g2B2] ^A2 [g2B2] | ^A2 [g2B2] A2 [g2B2] | 
"D"A2 D2 E2 D2 | =F2 E2 D3D | D2 E2 G2 A2 | ^A2 B2 D2 E2 | "G"G4 B2 ^A2 | A2 G2 D2 E2 | 
G2 D2 E2 G2 | z2 [g4B4G4] zD :|: G2 =F2 E2 D2 | ^A,2 B,2 A,2 B,2 | G2 =F2 E2 D2 | 
^A,2 B,2 A,2 B,2 | G2 =F2 E2 D2 | ^A,2 B,2 A,2 B,2 | G2 E2 G2 E2 | G2 E2 G2 E2 | 
"C"C2 C2 E2 G2 | ^A=A G2 _BA G2 | C2 C2 E2 G2 | ^A=A G2 _BA G2 | "G"D2 [g2B2] ^A2 [g2B2] | 
A2 D2 E2 D2 | "D"=F2 E2 D3D | D2 E2 G2 A2 | ^A2 B2 D2 E2 | "G"G4 B2 ^A2 | A2 G2 D2 E2 | 
|1 G2 D2 E2 G2 | z2 [g4B4G4] zD :|2 A2 G2 D2 E2 | G2 D2 E2 D2 | [g8B8=F8] | 


